assets/images/ico_done.svg

<svg width="76" height="75" viewBox="0 0 76 75" fill="none" xmlns="http://www.w3.org/2000/svg">
<path d="M37.5663 74.9534C16.9496 74.9534 0.0507812 58.1099 0.0507812 37.3925C0.0507812 16.675 16.9496 0 37.5663 0C58.1829 0 75.0817 16.8435 75.0817 37.3925C75.2507 58.1099 58.3519 74.9534 37.5663 74.9534ZM37.5663 3.36869C18.8085 3.36869 3.43055 18.6962 3.43055 37.3925C3.43055 56.0887 18.8085 71.4163 37.5663 71.4163C56.324 71.4163 71.702 56.0887 71.702 37.3925C71.871 18.6962 56.493 3.36869 37.5663 3.36869ZM52.2683 30.1498L49.9024 27.7917L33.8485 43.6246L25.3991 35.2028L23.0332 37.5609L33.8485 48.3407L52.2683 30.1498Z" fill="#6EBA7D"/>
</svg>

<svg width="76" height="75" fill="none" xmlns="http://www.w3.org/2000/svg"><path d="M37.566 74.953C16.95 74.953.051 58.11.051 37.393.05 16.674 16.95 0 37.566 0c20.617 0 37.516 16.843 37.516 37.392.169 20.718-16.73 37.561-37.516 37.561zm0-71.584c-18.758 0-34.135 15.327-34.135 34.023 0 18.697 15.377 34.024 34.135 34.024 18.758 0 34.136-15.327 34.136-34.023.169-18.697-15.209-34.024-34.136-34.024zm14.702 26.78l-2.366-2.357L33.85 43.625l-8.45-8.422-2.366 2.358L33.85 48.34l18.42-18.191z" fill="#6EBA7D"/></svg>
